X: 4090
T: RABBIE BURNS
R: Strathspey.
%R: strathspey
B: James Kerr "Merry Melodies" v.4 p.12 #90
Z: 2016 John Chambers <jc:trillian.mit.edu>
M: C
L: 1/16
K: G
ud2 |\
GG3 d3G BA3 A3B | GG3 d3G B3g d4 |\
eg3 B3d edcB A3B | Gg3 d3c BG3 G2 :|
|: d2 |\
gg3 g3b a3b a4 | dg3 gb3 g3d ed3 |\
eg3 B3d edcB A3B | Gg3 d3c BG3 G2 :|

%%sep 1 1 500
%%sep 1 1 500

